;FLAVOR:Marlin
;TIME:6130
;Filament used: 6.35148m, 0m
;Layer height: 0.1
;MINX:35.714
;MINY:9.7
;MINZ:0.2
;MAXX:149.263
;MAXY:175.3
;MAXZ:12
;Generated with Cura_SteamEngine 4.7.1
T0
M140 S70
M105
M190 S70
M104 S240
M105
M109 S240
M82 ;absolute extrusion mode
G28 ;Home
G1 Z15.0 F6000 ;Move the platform down 15mm
;Prime the extruder
G92 E0
G1 F200 E3
G92 E0
G92 X33 y-22
G92 E0
G92 E0
G1 F4200 E-10
;LAYER_COUNT:119
;LAYER:0
M107
;MESH:Cache Vis Version 2.STL
G0 F1440 X45.651 Y24.4 Z0.2
;TYPE:WALL-INNER
G1 F4200 E0
G1 F1800 X45.651 Y160.6 E4.53003
G1 X148.863 Y160.6 E7.96288
G1 X148.863 Y174.9 E8.4385
G1 X39.455 Y174.9 E12.07742
G1 X39.454 Y10.96 E17.53009
G1 X39.455 Y10.1 E17.55869
G1 X148.663 Y10.1 E21.19096
G1 X148.863 Y10.1 E21.19762
G1 X148.863 Y10.3 E21.20192
G1 X148.862 Y24.4 E21.67089
G1 X45.651 Y24.4 E25.1037
G0 F1440 X46.051 Y24.8
;TYPE:WALL-OUTER
G1 F1800 X46.051 Y160.2 E29.60712
G1 X149.263 Y160.2 E33.03997
G1 X149.263 Y175.3 E33.5422
G1 X39.055 Y175.3 E37.20773
G1 X39.054 Y10.96 E42.6737
G1 X39.055 Y9.7 E42.71561
G1 X149.063 Y9.7 E46.37449
G1 X149.263 Y9.7 E46.38114
G1 X149.263 Y9.9 E46.38545
G1 X149.262 Y24.8 E46.88103
G1 X46.051 Y24.8 E50.31384
G0 F1440 X46.051 Y25
G0 X45.551 Y25
G0 X45.261 Y24.01
;TYPE:SKIN
G1 F1800 X45.261 Y160.99 E54.86981
G1 X148.473 Y160.99 E58.30266
G1 X148.473 Y174.51 E58.75233
G1 X39.845 Y174.51 E62.36531
G1 X39.844 Y10.96 E67.80501
G1 X39.845 Y10.49 E67.82064
G1 X148.473 Y10.49 E71.43362
G1 X148.472 Y24.01 E71.8833
G1 X45.261 Y24.01 E75.31611
G0 F1440 X148.292 Y10.83
G1 F1800 X148.131 Y10.669 E75.32369
G0 F1440 X147.565 Y10.669
G1 F1800 X148.292 Y11.396 E75.35788
G0 F1440 X148.292 Y11.962
G1 F1800 X146.999 Y10.669 E75.4187
G0 F1440 X146.434 Y10.669
G1 F1800 X148.292 Y12.527 E75.50609
G0 F1440 X148.292 Y13.093
G1 F1800 X145.868 Y10.669 E75.62011
G0 F1440 X145.302 Y10.669
G1 F1800 X148.292 Y13.659 E75.76075
G0 F1440 X148.292 Y14.224
G1 F1800 X144.736 Y10.669 E75.92799
G0 F1440 X144.171 Y10.669
G1 F1800 X148.292 Y14.79 E76.12183
G0 F1440 X148.292 Y15.356
G1 F1800 X143.605 Y10.669 E76.34229
G0 F1440 X143.039 Y10.669
G1 F1800 X148.292 Y15.921 E76.58936
G0 F1440 X148.292 Y16.487
G1 F1800 X142.474 Y10.669 E76.86302
G0 F1440 X141.908 Y10.669
G1 F1800 X148.292 Y17.053 E77.1633
G0 F1440 X148.291 Y17.618
G1 F1800 X141.342 Y10.669 E77.49016
G0 F1440 X140.777 Y10.669
G1 F1800 X148.291 Y18.183 E77.8436
G0 F1440 X148.291 Y18.749
G1 F1800 X140.211 Y10.669 E78.22365
G0 F1440 X139.645 Y10.669
G1 F1800 X148.291 Y19.315 E78.63033
G0 F1440 X148.291 Y19.881
G1 F1800 X139.08 Y10.669 E79.06362
G0 F1440 X138.514 Y10.669
G1 F1800 X148.291 Y20.446 E79.5235
G0 F1440 X148.291 Y21.012
G1 F1800 X137.948 Y10.669 E80.01
G0 F1440 X137.383 Y10.669
G1 F1800 X148.291 Y21.578 E80.5231
G0 F1440 X148.291 Y22.143
G1 F1800 X136.817 Y10.669 E81.0628
G0 F1440 X136.251 Y10.669
G1 F1800 X148.291 Y22.709 E81.62913
G0 F1440 X148.291 Y23.275
G1 F1800 X135.686 Y10.669 E82.22205
G0 F1440 X135.12 Y10.669
G1 F1800 X148.28 Y23.83 E82.84108
G0 F1440 X147.715 Y23.83
G1 F1800 X134.554 Y10.669 E83.46013
G0 F1440 X133.988 Y10.669
G1 F1800 X147.149 Y23.83 E84.07919
G0 F1440 X146.583 Y23.83
G1 F1800 X133.423 Y10.669 E84.69822
G0 F1440 X132.857 Y10.669
G1 F1800 X146.018 Y23.83 E85.31727
G0 F1440 X145.452 Y23.83
G1 F1800 X132.291 Y10.669 E85.93632
G0 F1440 X131.726 Y10.669
G1 F1800 X144.886 Y23.83 E86.55535
G0 F1440 X144.321 Y23.83
G1 F1800 X131.16 Y10.669 E87.17441
G0 F1440 X130.594 Y10.669
G1 F1800 X143.755 Y23.83 E87.79346
G0 F1440 X143.189 Y23.83
G1 F1800 X130.029 Y10.669 E88.41249
G0 F1440 X129.463 Y10.669
G1 F1800 X142.624 Y23.83 E89.03154
G0 F1440 X142.058 Y23.83
G1 F1800 X128.897 Y10.669 E89.65059
G0 F1440 X128.332 Y10.669
G1 F1800 X141.492 Y23.83 E90.26962
G0 F1440 X140.927 Y23.83
G1 F1800 X127.766 Y10.669 E90.88868
G0 F1440 X127.2 Y10.669
G1 F1800 X140.361 Y23.83 E91.50773
G0 F1440 X139.795 Y23.83
G1 F1800 X126.635 Y10.669 E92.12676
G0 F1440 X126.069 Y10.669
G1 F1800 X139.23 Y23.83 E92.74581
G0 F1440 X138.664 Y23.83
G1 F1800 X125.503 Y10.669 E93.36487
G0 F1440 X124.937 Y10.669
G1 F1800 X138.098 Y23.83 E93.98392
G0 F1440 X137.532 Y23.83
G1 F1800 X124.372 Y10.669 E94.60295
G0 F1440 X123.806 Y10.669
G1 F1800 X136.967 Y23.83 E95.222
G0 F1440 X136.401 Y23.83
G1 F1800 X123.24 Y10.669 E95.84105
G0 F1440 X122.675 Y10.669
G1 F1800 X135.835 Y23.83 E96.46008
G0 F1440 X135.27 Y23.83
G1 F1800 X122.109 Y10.669 E97.07914
G0 F1440 X121.543 Y10.669
G1 F1800 X134.704 Y23.83 E97.69819
G0 F1440 X134.138 Y23.83
G1 F1800 X120.978 Y10.669 E98.31722
G0 F1440 X120.412 Y10.669
G1 F1800 X133.573 Y23.83 E98.93627
G0 F1440 X133.007 Y23.83
G1 F1800 X119.846 Y10.669 E99.55533
G0 F1440 X119.281 Y10.669
G1 F1800 X132.441 Y23.83 E100.17436
G0 F1440 X131.876 Y23.83
G1 F1800 X118.715 Y10.669 E100.79341
G0 F1440 X118.149 Y10.669
G1 F1800 X131.31 Y23.83 E101.41246
G0 F1440 X130.744 Y23.83
G1 F1800 X117.584 Y10.669 E102.03149
G0 F1440 X117.018 Y10.669
G1 F1800 X130.179 Y23.83 E102.65054
G0 F1440 X129.613 Y23.83
G1 F1800 X116.452 Y10.669 E103.2696
G0 F1440 X115.887 Y10.669
G1 F1800 X129.047 Y23.83 E103.88863
G0 F1440 X128.482 Y23.83
G1 F1800 X115.321 Y10.669 E104.50768
G0 F1440 X114.755 Y10.669
G1 F1800 X127.916 Y23.83 E105.12673
G0 F1440 X127.35 Y23.83
G1 F1800 X114.189 Y10.669 E105.74579
G0 F1440 X113.624 Y10.669
G1 F1800 X126.784 Y23.83 E106.36482
G0 F1440 X126.219 Y23.83
G1 F1800 X113.058 Y10.669 E106.98387
G0 F1440 X112.492 Y10.669
G1 F1800 X125.653 Y23.83 E107.60292
G0 F1440 X125.087 Y23.83
G1 F1800 X111.927 Y10.669 E108.22195
G0 F1440 X111.361 Y10.669
G1 F1800 X124.522 Y23.83 E108.84101
G0 F1440 X123.956 Y23.83
G1 F1800 X110.795 Y10.669 E109.46006
G0 F1440 X110.23 Y10.669
G1 F1800 X123.39 Y23.83 E110.07909
G0 F1440 X122.825 Y23.83
G1 F1800 X109.664 Y10.669 E110.69814
G0 F1440 X109.098 Y10.669
G1 F1800 X122.259 Y23.83 E111.31719
G0 F1440 X121.693 Y23.83
G1 F1800 X108.533 Y10.669 E111.93622
G0 F1440 X107.967 Y10.669
G1 F1800 X121.128 Y23.83 E112.55528
G0 F1440 X120.562 Y23.83
G1 F1800 X107.401 Y10.669 E113.17433
G0 F1440 X106.836 Y10.669
G1 F1800 X119.996 Y23.83 E113.79336
G0 F1440 X119.431 Y23.83
G1 F1800 X106.27 Y10.669 E114.41241
G0 F1440 X105.704 Y10.669
G1 F1800 X118.865 Y23.83 E115.03147
G0 F1440 X118.299 Y23.83
G1 F1800 X105.139 Y10.669 E115.6505
G0 F1440 X104.573 Y10.669
G1 F1800 X117.733 Y23.83 E116.26952
G0 F1440 X117.168 Y23.83
G1 F1800 X104.007 Y10.669 E116.88858
G0 F1440 X103.441 Y10.669
G1 F1800 X116.602 Y23.83 E117.50763
G0 F1440 X116.036 Y23.83
G1 F1800 X102.876 Y10.669 E118.12666
G0 F1440 X102.31 Y10.669
G1 F1800 X115.471 Y23.83 E118.74571
G0 F1440 X114.905 Y23.83
G1 F1800 X101.744 Y10.669 E119.36477
G0 F1440 X101.179 Y10.669
G1 F1800 X114.339 Y23.83 E119.9838
G0 F1440 X113.774 Y23.83
G1 F1800 X100.613 Y10.669 E120.60285
G0 F1440 X100.047 Y10.669
G1 F1800 X113.208 Y23.83 E121.2219
G0 F1440 X112.642 Y23.83
G1 F1800 X99.482 Y10.669 E121.84093
G0 F1440 X98.916 Y10.669
G1 F1800 X112.077 Y23.83 E122.45998
G0 F1440 X111.511 Y23.83
G1 F1800 X98.35 Y10.669 E123.07904
G0 F1440 X97.785 Y10.669
G1 F1800 X110.945 Y23.83 E123.69807
G0 F1440 X110.38 Y23.83
G1 F1800 X97.219 Y10.669 E124.31712
G0 F1440 X96.653 Y10.669
G1 F1800 X109.814 Y23.83 E124.93617
G0 F1440 X109.248 Y23.83
G1 F1800 X96.088 Y10.669 E125.5552
G0 F1440 X95.522 Y10.669
G1 F1800 X108.683 Y23.83 E126.17426
G0 F1440 X108.117 Y23.83
G1 F1800 X94.956 Y10.669 E126.79331
G0 F1440 X94.39 Y10.669
G1 F1800 X107.551 Y23.83 E127.41236
G0 F1440 X106.985 Y23.83
G1 F1800 X93.825 Y10.669 E128.03139
G0 F1440 X93.259 Y10.669
G1 F1800 X106.42 Y23.83 E128.65045
G0 F1440 X105.854 Y23.83
G1 F1800 X92.693 Y10.669 E129.2695
G0 F1440 X92.128 Y10.669
G1 F1800 X105.288 Y23.83 E129.88853
G0 F1440 X104.723 Y23.83
G1 F1800 X91.562 Y10.669 E130.50758
G0 F1440 X90.996 Y10.669
G1 F1800 X104.157 Y23.83 E131.12663
G0 F1440 X103.591 Y23.83
G1 F1800 X90.431 Y10.669 E131.74566
G0 F1440 X89.865 Y10.669
G1 F1800 X103.026 Y23.83 E132.36472
G0 F1440 X102.46 Y23.83
G1 F1800 X89.299 Y10.669 E132.98377
G0 F1440 X88.734 Y10.669
G1 F1800 X101.894 Y23.83 E133.6028
G0 F1440 X101.329 Y23.83
G1 F1800 X88.168 Y10.669 E134.22185
G0 F1440 X87.602 Y10.669
G1 F1800 X100.763 Y23.83 E134.84091
G0 F1440 X100.197 Y23.83
G1 F1800 X87.037 Y10.669 E135.45994
G0 F1440 X86.471 Y10.669
G1 F1800 X99.632 Y23.83 E136.07899
G0 F1440 X99.066 Y23.83
G1 F1800 X85.905 Y10.669 E136.69804
G0 F1440 X85.34 Y10.669
G1 F1800 X98.5 Y23.83 E137.31707
G0 F1440 X97.934 Y23.83
G1 F1800 X84.774 Y10.669 E137.9361
G0 F1440 X84.208 Y10.669
G1 F1800 X97.369 Y23.83 E138.55515
G0 F1440 X96.803 Y23.83
G1 F1800 X83.642 Y10.669 E139.17421
G0 F1440 X83.077 Y10.669
G1 F1800 X96.237 Y23.83 E139.79324
G0 F1440 X95.672 Y23.83
G1 F1800 X82.511 Y10.669 E140.41229
G0 F1440 X81.945 Y10.669
G1 F1800 X95.106 Y23.83 E141.03134
G0 F1440 X94.54 Y23.83
G1 F1800 X81.38 Y10.669 E141.65037
G0 F1440 X80.814 Y10.669
G1 F1800 X93.975 Y23.83 E142.26943
G0 F1440 X93.409 Y23.83
G1 F1800 X80.248 Y10.669 E142.88848
G0 F1440 X79.683 Y10.669
G1 F1800 X92.843 Y23.83 E143.50751
G0 F1440 X92.278 Y23.83
G1 F1800 X79.117 Y10.669 E144.12656
G0 F1440 X78.551 Y10.669
G1 F1800 X91.712 Y23.83 E144.74561
G0 F1440 X91.146 Y23.83
G1 F1800 X77.986 Y10.669 E145.36464
G0 F1440 X77.42 Y10.669
G1 F1800 X90.581 Y23.83 E145.9837
G0 F1440 X90.015 Y23.83
G1 F1800 X76.854 Y10.669 E146.60275
G0 F1440 X76.289 Y10.669
G1 F1800 X89.449 Y23.83 E147.22178
G0 F1440 X88.884 Y23.83
G1 F1800 X75.723 Y10.669 E147.84083
G0 F1440 X75.157 Y10.669
G1 F1800 X88.318 Y23.83 E148.45989
G0 F1440 X87.752 Y23.83
G1 F1800 X74.591 Y10.669 E149.07894
G0 F1440 X74.026 Y10.669
G1 F1800 X87.186 Y23.83 E149.69797
G0 F1440 X86.621 Y23.83
G1 F1800 X73.46 Y10.669 E150.31702
G0 F1440 X72.894 Y10.669
G1 F1800 X86.055 Y23.83 E150.93607
G0 F1440 X85.489 Y23.83
G1 F1800 X72.329 Y10.669 E151.5551
G0 F1440 X71.763 Y10.669
G1 F1800 X84.924 Y23.83 E152.17416
G0 F1440 X84.358 Y23.83
G1 F1800 X71.197 Y10.669 E152.79321
G0 F1440 X70.632 Y10.669
G1 F1800 X83.792 Y23.83 E153.41224
G0 F1440 X83.227 Y23.83
G1 F1800 X70.066 Y10.669 E154.03129
G0 F1440 X69.5 Y10.669
G1 F1800 X82.661 Y23.83 E154.65035
G0 F1440 X82.095 Y23.83
G1 F1800 X68.935 Y10.669 E155.26938
G0 F1440 X68.369 Y10.669
G1 F1800 X81.53 Y23.83 E155.88843
G0 F1440 X80.964 Y23.83
G1 F1800 X67.803 Y10.669 E156.50748
G0 F1440 X67.238 Y10.669
G1 F1800 X80.398 Y23.83 E157.12651
G0 F1440 X79.833 Y23.83
G1 F1800 X66.672 Y10.669 E157.74556
G0 F1440 X66.106 Y10.669
G1 F1800 X79.267 Y23.83 E158.36462
G0 F1440 X78.701 Y23.83
G1 F1800 X65.541 Y10.669 E158.98365
G0 F1440 X64.975 Y10.669
G1 F1800 X78.136 Y23.83 E159.6027
G0 F1440 X77.57 Y23.83
G1 F1800 X64.409 Y10.669 E160.22175
G0 F1440 X63.843 Y10.669
G1 F1800 X77.004 Y23.83 E160.84081
G0 F1440 X76.438 Y23.83
G1 F1800 X63.278 Y10.669 E161.45984
G0 F1440 X62.712 Y10.669
G1 F1800 X75.873 Y23.83 E162.07889
G0 F1440 X75.307 Y23.83
G1 F1800 X62.146 Y10.669 E162.69794
G0 F1440 X61.581 Y10.669
G1 F1800 X74.741 Y23.83 E163.31697
G0 F1440 X74.176 Y23.83
G1 F1800 X61.015 Y10.669 E163.93602
G0 F1440 X60.449 Y10.669
G1 F1800 X73.61 Y23.83 E164.55508
G0 F1440 X73.044 Y23.83
G1 F1800 X59.884 Y10.669 E165.17411
G0 F1440 X59.318 Y10.669
G1 F1800 X72.479 Y23.83 E165.79316
G0 F1440 X71.913 Y23.83
G1 F1800 X58.752 Y10.669 E166.41221
G0 F1440 X58.187 Y10.669
G1 F1800 X71.347 Y23.83 E167.03124
G0 F1440 X70.782 Y23.83
G1 F1800 X57.621 Y10.669 E167.6503
G0 F1440 X57.055 Y10.669
G1 F1800 X70.216 Y23.83 E168.26935
G0 F1440 X69.65 Y23.83
G1 F1800 X56.49 Y10.669 E168.88838
G0 F1440 X55.924 Y10.669
G1 F1800 X69.085 Y23.83 E169.50743
G0 F1440 X68.519 Y23.83
G1 F1800 X55.358 Y10.669 E170.12648
G0 F1440 X54.792 Y10.669
G1 F1800 X67.953 Y23.83 E170.74554
G0 F1440 X67.387 Y23.83
G1 F1800 X54.227 Y10.669 E171.36457
G0 F1440 X53.661 Y10.669
G1 F1800 X66.822 Y23.83 E171.98362
G0 F1440 X66.256 Y23.83
G1 F1800 X53.095 Y10.669 E172.60267
G0 F1440 X52.53 Y10.669
G1 F1800 X65.69 Y23.83 E173.2217
G0 F1440 X65.125 Y23.83
G1 F1800 X51.964 Y10.669 E173.84076
G0 F1440 X51.398 Y10.669
G1 F1800 X64.559 Y23.83 E174.45981
G0 F1440 X63.993 Y23.83
G1 F1800 X50.833 Y10.669 E175.07884
G0 F1440 X50.267 Y10.669
G1 F1800 X63.428 Y23.83 E175.69789
G0 F1440 X62.862 Y23.83
G1 F1800 X49.701 Y10.669 E176.31695
G0 F1440 X49.136 Y10.669
G1 F1800 X62.296 Y23.83 E176.93597
G0 F1440 X61.731 Y23.83
G1 F1800 X48.57 Y10.669 E177.55503
G0 F1440 X48.004 Y10.669
G1 F1800 X61.165 Y23.83 E178.17408
G0 F1440 X60.599 Y23.83
G1 F1800 X47.439 Y10.669 E178.79311
G0 F1440 X46.873 Y10.669
G1 F1800 X60.034 Y23.83 E179.41216
G0 F1440 X59.468 Y23.83
G1 F1800 X46.307 Y10.669 E180.03122
G0 F1440 X45.742 Y10.669
G1 F1800 X58.902 Y23.83 E180.65025
G0 F1440 X58.337 Y23.83
G1 F1800 X45.176 Y10.669 E181.2693
G0 F1440 X44.61 Y10.669
G1 F1800 X57.771 Y23.83 E181.88835
G0 F1440 X57.205 Y23.83
G1 F1800 X44.044 Y10.669 E182.50741
G0 F1440 X43.479 Y10.669
G1 F1800 X56.639 Y23.83 E183.12644
G0 F1440 X56.074 Y23.83
G1 F1800 X42.913 Y10.669 E183.74549
G0 F1440 X42.347 Y10.669
G1 F1800 X55.508 Y23.83 E184.36454
G0 F1440 X54.942 Y23.83
G1 F1800 X41.782 Y10.669 E184.98357
G0 F1440 X41.216 Y10.669
G1 F1800 X54.377 Y23.83 E185.60262
G0 F1440 X53.811 Y23.83
G1 F1800 X40.65 Y10.669 E186.22168
G0 F1440 X40.085 Y10.669
G1 F1800 X53.245 Y23.83 E186.84071
G0 F1440 X52.68 Y23.83
G1 F1800 X40.023 Y11.173 E187.43605
G0 F1440 X40.023 Y11.739
G1 F1800 X52.114 Y23.83 E188.00478
G0 F1440 X51.548 Y23.83
G1 F1800 X40.023 Y12.305 E188.54688
G0 F1440 X40.023 Y12.87
G1 F1800 X50.983 Y23.83 E189.0624
G0 F1440 X50.417 Y23.83
G1 F1800 X40.023 Y13.436 E189.5513
G0 F1440 X40.023 Y14.002
G1 F1800 X49.851 Y23.83 E190.01358
G0 F1440 X49.286 Y23.83
G1 F1800 X40.023 Y14.567 E190.44929
G0 F1440 X40.023 Y15.133
G1 F1800 X48.72 Y23.83 E190.85837
G0 F1440 X48.154 Y23.83
G1 F1800 X40.023 Y15.699 E191.24082
G0 F1440 X40.023 Y16.264
G1 F1800 X47.588 Y23.83 E191.59668
G0 F1440 X47.023 Y23.83
G1 F1800 X40.023 Y16.83 E191.92594
G0 F1440 X40.023 Y17.396
G1 F1800 X46.457 Y23.83 E192.22858
G0 F1440 X45.891 Y23.83
G1 F1800 X40.023 Y17.961 E192.50461
G0 F1440 X40.023 Y18.527
G1 F1800 X45.326 Y23.83 E192.75405
G0 F1440 X45.08 Y24.15
G1 F1800 X40.023 Y19.093 E192.99191
G0 F1440 X40.023 Y19.658
G1 F1800 X45.08 Y24.716 E193.2298
G0 F1440 X45.08 Y25.281
G1 F1800 X40.023 Y20.224 E193.46767
G0 F1440 X40.023 Y20.79
G1 F1800 X45.08 Y25.847 E193.70554
G0 F1440 X45.08 Y26.413
G1 F1800 X40.023 Y21.356 E193.9434
G0 F1440 X40.023 Y21.921
G1 F1800 X45.08 Y26.978 E194.18127
G0 F1440 X45.08 Y27.544
G1 F1800 X40.023 Y22.487 E194.41913
G0 F1440 X40.023 Y23.053
G1 F1800 X45.08 Y28.11 E194.657
G0 F1440 X45.08 Y28.676
G1 F1800 X40.023 Y23.618 E194.89489
G0 F1440 X40.023 Y24.184
G1 F1800 X45.08 Y29.241 E195.13275
G0 F1440 X45.08 Y29.807
G1 F1800 X40.023 Y24.75 E195.37062
G0 F1440 X40.023 Y25.315
G1 F1800 X45.08 Y30.373 E195.60851
G0 F1440 X45.08 Y30.938
G1 F1800 X40.023 Y25.881 E195.84637
G0 F1440 X40.023 Y26.447
G1 F1800 X45.08 Y31.504 E196.08424
G0 F1440 X45.08 Y32.07
G1 F1800 X40.023 Y27.012 E196.32213
G0 F1440 X40.023 Y27.578
G1 F1800 X45.08 Y32.635 E196.56
G0 F1440 X45.08 Y33.201
G1 F1800 X40.023 Y28.144 E196.79786
G0 F1440 X40.023 Y28.709
G1 F1800 X45.08 Y33.767 E197.03575
G0 F1440 X45.08 Y34.332
G1 F1800 X40.023 Y29.275 E197.27362
G0 F1440 X40.023 Y29.841
G1 F1800 X45.08 Y34.898 E197.51148
G0 F1440 X45.08 Y35.464
G1 F1800 X40.023 Y30.407 E197.74935
G0 F1440 X40.023 Y30.972
G1 F1800 X45.08 Y36.029 E197.98721
G0 F1440 X45.08 Y36.595
G1 F1800 X40.023 Y31.538 E198.22508
G0 F1440 X40.023 Y32.104
G1 F1800 X45.08 Y37.161 E198.46295
G0 F1440 X45.08 Y37.726
G1 F1800 X40.023 Y32.669 E198.70081
G0 F1440 X40.023 Y33.235
G1 F1800 X45.08 Y38.292 E198.93868
G0 F1440 X45.08 Y38.858
G1 F1800 X40.023 Y33.801 E199.17654
G0 F1440 X40.023 Y34.366
G1 F1800 X45.08 Y39.424 E199.41443
G0 F1440 X45.08 Y39.989
G1 F1800 X40.023 Y34.932 E199.6523
G0 F1440 X40.023 Y35.498
G1 F1800 X45.08 Y40.555 E199.89016
G0 F1440 X45.08 Y41.121
G1 F1800 X40.023 Y36.063 E200.12805
G0 F1440 X40.023 Y36.629
G1 F1800 X45.08 Y41.686 E200.36592
G0 F1440 X45.08 Y42.252
G1 F1800 X40.023 Y37.195 E200.60378
G0 F1440 X40.023 Y37.76
G1 F1800 X45.08 Y42.818 E200.84167
